!!!COM: Anon.
!!!OTL: Hilo Verde
!! Maria Cadilla de Martinez,
!! Juegos Y Canciones Infantiles de Puerto Rico
!! Talleres Graficos, Cas Baldrich, Brau 93, San Juan, P.R.
!! 1940.  Derechos reservados de la Autora
!! page 116
!! Allegro
**kern
*clefG2
*k[b-e-]
*M3/4
{4g
4b-
=
2dd
4b-
=
2g
4b-
=
4dd
[2cc
=
4cc]},
{4cc
4dd
=
2ee
4cc
=
2a
4f#
=
4a
[2g
=
4g]
{4b-
4a
=
2g
4a
=
2b-
4cc
=
4dd
[2dd
=
4dd]},
{4cc
4b-
=
2a
4a
=
2dd
4dd
=
[2.g
=
4g]},
==
*-
